X:151
T:Flaherty's
R:hornpipe
Z:id:hn-hornpipe-151
M:C|
L:1/8
K:D
FG | A2FD A,DFA | dced BcdB | A2FD A,DFA | BAGF EFG^G |
A2FD A,DFA | dced BcdB | AdcB AGFE | (3DED CE D2 :|
|: dc | BABc dcdf | bagf edcB | cEEF GFGB | ec (3dcB A2FG |
(3ABA FD A,DFA | dced B2dB | AdcB AGFE | (3DED CE D2 :|

